**kern	**silbe	**kern	**silbe
*ICvox	*	*ICvox	*
*D:	*	*D:	*
*M4/4	*	*M4/4	*
*clefF4	*	*clefG2	*
r;	.	r;	.
=1	=1	=1	=1
1r	.	1r	.
=2	=2	=2	=2
1r	.	1r	.
=3	=3	=3	=3
1r	.	1r	.
=4	=4	=4	=4
1r	.	1r	.
=5	=5	=5	=5
1r	.	1r	.
=6	=6	=6	=6
1r	.	1r	.
=7	=7	=7	=7
1r	.	1r	.
=8	=8	=8	=8
1r	.	1r	.
=9	=9	=9	=9
1r	.	1r	.
=10	=10	=10	=10
1r	.	1r	.
=11	=11	=11	=11
1r	.	1r	.
=12	=12	=12	=12
1r	.	1r	.
=13	=13	=13	=13
1r	.	1r	.
=14	=14	=14	=14
1r	.	1r	.
=15	=15	=15	=15
1r	.	1r	.
=16	=16	=16	=16
1r	.	1r	.
=17	=17	=17	=17
4BB	Hey	1r	.
8D	li-	.	.
8D	-ttle	.	.
4F#	sis-	.	.
8F#	-ter	.	.
[8BB	what	.	.
=18	=18	=18	=18
8BB]	_	1r	.
4D	have	.	.
4F#	you	.	.
[4.E	done?.	.	.
=19	=19	=19	=19
2E]	_	1r	.
2r	.	.	.
=20	=20	=20	=20
1r	.	1r	.
=21	=21	=21	=21
4BB	Hey	1r	.
8D	li-	.	.
8D	-ttle	.	.
4F#	sis-	.	.
8F#	-ter	.	.
[8A	who's	.	.
=22	=22	=22	=22
8A]	_	1r	.
4F#	the	.	.
4E	on-	.	.
8F#	-ly	.	.
[4F#	one?.	.	.
=23	=23	=23	=23
2F#]	_	1r	.
2r	.	.	.
=24	=24	=24	=24
1r	.	1r	.
=25	=25	=25	=25
4BB	Hey	1r	.
8D	li-	.	.
8D	-ttle	.	.
4F#	sis-	.	.
8F#	-ter	.	.
[8A	who's	.	.
=26	=26	=26	=26
8A]	_	1r	.
4F#	your	.	.
4E	su-	.	.
8F#	-per-	.	.
4F#	-man?.	.	.
=27	=27	=27	=27
4BB	Hey	1r	.
8D	li-	.	.
8D	-ttle	.	.
4F#	sis-	.	.
8F#	-ter	.	.
[8A	who's	.	.
=28	=28	=28	=28
8A]	_	1r	.
4F#	the	.	.
4E	one	.	.
8F#	we	.	.
4BB	want?.	.	.
=29	=29	=29	=29
4BB	Hey	1r	.
8D	li-	.	.
8D	-ttle	.	.
4F#	sis-	.	.
8F#	-ter	.	.
[8A	shot-	.	.
=30	=30	=30	=30
8A]	_	1r	.
8F#	-gun.	.	.
2r	.	.	.
8BB	It's	.	.
8BB	a	.	.
=31	=31	=31	=31
4r	.	1r	.
4D	nice	.	.
4D	day	.	.
4BB	to	.	.
=32	=32	=32	=32
4r	.	1r	.
8r	.	.	.
4A	start	.	.
8F#	a-	.	.
8E	-gain.	.	.
[8F#	_	.	.
=33	=33	=33	=33
4F#]	_	1r	.
2r	.	.	.
4r	.	.	.
=34	=34	=34	=34
2r	.	1r	.
4r	.	.	.
8D	It's	.	.
8BB	a	.	.
=35	=35	=35	=35
4r	.	1r	.
4D	nice	.	.
4D	day	.	.
8BB	for	.	.
8BB	a	.	.
=36	=36	=36	=36
4r	.	1r	.
4D	white	.	.
8D	wed-	.	.
[4.D	-ding.	.	.
=37	=37	=37	=37
2D]	_	1r	.
2r	.	.	.
=38	=38	=38	=38
2r	.	1r	.
4r	.	.	.
8D	It's	.	.
8BB	a	.	.
=39	=39	=39	=39
4r	.	1r	.
4D	nice	.	.
4D#	day	.	.
4BB	to	.	.
=40	=40	=40	=40
4r	.	1r	.
8r	.	.	.
4A	start	.	.
8F#	a-	.	.
8E	-gain.	.	.
[8F#	_	.	.
=41	=41	=41	=41
2.F#]	_	1r	.
4r	.	.	.
=42	=42	=42	=42
1r	.	1r	.
=43	=43	=43	=43
4BB	Hey	1r	.
8D	li-	.	.
8D	-ttle	.	.
4F#	sis-	.	.
8F#	-ter	.	.
[8BB	who	.	.
=44	=44	=44	=44
8BB]	_	1A	Ooh.
4D	is	.	.
8D	it	.	.
4F#	you're	.	.
8E	with	.	.
[8D	with?.	.	.
=45	=45	=45	=45
4D]	_	1G#	_
2r	.	.	.
4r	.	.	.
=46	=46	=46	=46
1r	.	2F#	_
.	.	2r	.
=47	=47	=47	=47
4BB	Hey	1r	.
8D	li-	.	.
8D	-ttle	.	.
4F#	sis-	.	.
8F#	-ter	.	.
[8A	what's	.	.
=48	=48	=48	=48
8A]	_	2..A	Ooh.
4F#	your	.	.
4E	vice	.	.
8F#	or	.	.
[4F#	wish?.	.	.
.	.	16G#	_
.	.	16A	_
=49	=49	=49	=49
4F#]	_	2..G#	_
2r	.	.	.
4r	.	.	.
.	.	16F#	_
.	.	16G#	_
=50	=50	=50	=50
1r	.	2F#	_
.	.	2r	.
=51	=51	=51	=51
4BB	Hey	1r	.
8D	li-	.	.
8D	-ttle	.	.
4F#	sis-	.	.
8F#	-ter	.	.
[8A	shot-	.	.
=52	=52	=52	=52
8A]	_	1r	.
4F#	-gun.	.	.
4E	oh	.	.
8F#	_	.	.
4F#	yeah.	.	.
=53	=53	=53	=53
4BB	Hey	1r	.
8D	li-	.	.
8D	-ttle	.	.
4F#	sis-	.	.
8F#	-ter	.	.
[8A	who's	.	.
=54	=54	=54	=54
8A]	_	1r	.
4F#	your	.	.
4E	su-	.	.
8F#	-per-	.	.
4F#	-man?.	.	.
=55	=55	=55	=55
4BB	Hey	1r	.
8D	li-	.	.
8D	-ttle	.	.
4F#	sis-	.	.
8F#	-ter	.	.
[8A	shot-	.	.
=56	=56	=56	=56
8A]	_	1r	.
8F#	-gun.	.	.
2r	.	.	.
8BB	It's	.	.
8BB	a	.	.
=57	=57	=57	=57
4r	.	1r	.
4D	nice	.	.
4D	day	.	.
[4BB	to	.	.
=58	=58	=58	=58
4BB]	_	1r	.
8r	.	.	.
4A	start	.	.
8F#	a-	.	.
8E	-gain.	.	.
[8F#	_	.	.
=59	=59	=59	=59
4F#]	_	1r	.
2r	.	.	.
4r	.	.	.
=60	=60	=60	=60
2r	.	1r	.
4r	.	.	.
8D	It's	.	.
8BB	a	.	.
=61	=61	=61	=61
4r	.	1r	.
4D	nice	.	.
4D	day	.	.
8BB	for	.	.
8BB	a	.	.
=62	=62	=62	=62
4r	.	1r	.
4D	white	.	.
8D	wed-	.	.
[4.D	-ding.	.	.
=63	=63	=63	=63
2D]	_	1r	.
2r	.	.	.
=64	=64	=64	=64
2r	.	1r	.
4r	.	.	.
8D	It's	.	.
8BB	a	.	.
=65	=65	=65	=65
4r	.	1r	.
4D	nice	.	.
4D	day	.	.
4BB	to	.	.
=66	=66	=66	=66
4r	.	1r	.
8r	.	.	.
4f#	start	.	.
8f#	a-	.	.
8e	-gain.	.	.
[8f#	_	.	.
=67	=67	=67	=67
1f#]	_	1r	.
=68	=68	=68	=68
[2B	_	1r	.
8B]	_	.	.
4.B	ow!.	.	.
=69	=69	=69	=69
1r	.	1r	.
=70	=70	=70	=70
1r	.	1r	.
=71	=71	=71	=71
1r	.	1r	.
=72	=72	=72	=72
1r	.	1r	.
=73	=73	=73	=73
1r	.	1r	.
=74	=74	=74	=74
1r	.	1r	.
=75	=75	=75	=75
1r	.	1r	.
=76	=76	=76	=76
1r	.	1r	.
=77	=77	=77	=77
1r	.	1r	.
=78	=78	=78	=78
1r	.	1r	.
=79	=79	=79	=79
1r	.	1r	.
=80	=80	=80	=80
1r	.	1r	.
=81	=81	=81	=81
1r	.	1r	.
=82	=82	=82	=82
1r	.	1r	.
=83	=83	=83	=83
1r	.	1r	.
=84	=84	=84	=84
1r	.	1r	.
=85	=85	=85	=85
1r	.	1r	.
=86	=86	=86	=86
1r	.	1r	.
=87	=87	=87	=87
1r	.	1r	.
=88	=88	=88	=88
2r	.	1r	.
8r	.	.	.
16~F#	Pick	.	.
16~F#	it	.	.
4~BB	up!.	.	.
=89	=89	=89	=89
2r	.	1r	.
4r	.	.	.
8r	.	.	.
[8d	Take	.	.
=90	=90	=90	=90
8d]	_	1r	.
8B	my	.	.
4B	back	.	.
4B	home	.	.
4d	yeah.	.	.
=91	=91	=91	=91
1r	.	1r	.
=92	=92	=92	=92
1r	.	1r	.
=93	=93	=93	=93
4BB	Hey	1r	.
8D	li-	.	.
8D	-ttle	.	.
4F#	sis-	.	.
8F#	-ter	.	.
[8BB	what	.	.
=94	=94	=94	=94
8BB]	_	1A	Ooh.
4D	have	.	.
4F#	you	.	.
4E	done?.	.	.
[8D	_	.	.
=95	=95	=95	=95
2D]	_	1G#	_
2r	.	.	.
=96	=96	=96	=96
1r	.	2F#	_
.	.	2r	.
=97	=97	=97	=97
4BB	Hey	2r	.
8D	li-	.	.
8D	-ttle	.	.
4F#	sis-	4r	.
8F#	-ter	8r	.
[8A	who's	[8A	On-
=98	=98	=98	=98
8A]	_	8A]	_
4F#	the	4F#	-ly
4E	on-	4A	on-
8F#	-ly	4F#	-ly
[4F#	one?.	.	.
.	.	[8A	on-
=99	=99	=99	=99
4F#]	_	8A]	_
.	.	4F#	-ly
2r	.	.	.
.	.	4A	on-
.	.	8F#	-ly
4r	.	[4F#	one.
=100	=100	=100	=100
1r	.	2F#]	_
.	.	2r	.
=101	=101	=101	=101
4BB	I've	4r	.
8D	been	8r	.
8D	a-	4A	So
4F#	-way	.	.
.	.	4.F#	long.
8F#	for	.	.
[8A	so	.	.
=102	=102	=102	=102
8A]	_	1r	.
4F#	long.	.	.
2r	.	.	.
8r	.	.	.
=103	=103	=103	=103
4BB	I've	4r	.
8D	been	8r	.
8D	a-	4A	So
4F#	-way	.	.
.	.	4F#	long.
8F#	for	.	.
[8A	so	8E	_
=104	=104	=104	=104
8A]	_	1r	.
4F#	long.	.	.
2r	.	.	.
8r	.	.	.
=105	=105	=105	=105
4BB	I	1r	.
8D	let	.	.
8D	you	.	.
4F#	go	.	.
8F#	for	.	.
[8A	so	.	.
=106	=106	=106	=106
8A]	_	1r	.
4F#	long.	.	.
4r	.	.	.
8r	.	.	.
8BB	It's	.	.
8BB	a	.	.
=107	=107	=107	=107
4r	.	1r	.
4D	nice	.	.
4D	day	.	.
4BB	to	.	.
=108	=108	=108	=108
4r	.	1r	.
8r	.	.	.
4A	start	.	.
8F#	a-	.	.
8E	-gain.	.	.
[8F#	_	.	.
=109	=109	=109	=109
4F#]	_	1r	.
2r	.	.	.
4r	.	.	.
=110	=110	=110	=110
4r	.	1r	.
8D	Come	.	.
4.D	on!.	.	.
8BB	It's	.	.
8BB	a	.	.
=111	=111	=111	=111
4r	.	1r	.
4D	nice	.	.
4D	day	.	.
8BB	for	.	.
8BB	a	.	.
=112	=112	=112	=112
4r	.	1r	.
4D	white	.	.
8D	wed-	.	.
[4.D	-ding.	.	.
=113	=113	=113	=113
2D]	_	1r	.
2r	.	.	.
=114	=114	=114	=114
2r	.	1r	.
4r	.	.	.
8D	It's	.	.
8BB	a	.	.
=115	=115	=115	=115
4r	.	1r	.
4D	nice	.	.
4D	day	.	.
4BB	to	.	.
=116	=116	=116	=116
4r	.	1r	.
8r	.	.	.
4f#	start	.	.
8f#	a-	.	.
8e	-gain.	.	.
[8f#	_	.	.
=117	=117	=117	=117
1f#]	_	1r	.
=118	=118	=118	=118
[2B	_	1r	.
8B]	_	.	.
4.B	ow!.	.	.
=119	=119	=119	=119
1r	.	1r	.
=120	=120	=120	=120
2r	.	1r	.
4r	.	.	.
8BB	There	.	.
8D	is	.	.
=121	=121	=121	=121
8F#	no-	1r	.
4F#	-thing	.	.
4F#	fair	.	.
8E	in	.	.
4D	this	.	.
=122	=122	=122	=122
8BB	world	1r	.
4.AA	_	.	.
8AA	World.	.	.
4.BB	_	.	.
=123	=123	=123	=123
1r	.	1r	.
=124	=124	=124	=124
2r	.	1r	.
4r	.	.	.
8BB	There	.	.
8D	is	.	.
=125	=125	=125	=125
8F#	no-	1r	.
4F#	-thing	.	.
4F#	safe	.	.
4E	in	.	.
[8A	this	.	.
=126	=126	=126	=126
4A]	_	1r	.
8F#	world.	.	.
[4.E	_	.	.
4E]	_	.	.
=127	=127	=127	=127
1r	.	1r	.
=128	=128	=128	=128
2r	.	1r	.
8r	.	.	.
8.F#	And	.	.
8.F#	there's	.	.
=129	=129	=129	=129
8A	no-	1r	.
4F#	-thing	.	.
4A	sure	.	.
8F#	in	.	.
4A	this	.	.
=130	=130	=130	=130
8F#	world.	1r	.
4E	_	.	.
4r	.	.	.
8F#	And	.	.
4F#	there's	.	.
=131	=131	=131	=131
8A	no-	1r	.
4F#	-thing	.	.
4A	pure	.	.
8F#	in	.	.
4A	this	.	.
=132	=132	=132	=132
8F#	world.	1r	.
4E	_	.	.
8r	.	.	.
16r	.	.	.
16F#	and	.	.
4F#	if	.	.
8F#	there's	.	.
=133	=133	=133	=133
8A	some-	1r	.
4F#	-thing	.	.
4A	left	.	.
8F#	in	.	.
4A	this	.	.
=134	=134	=134	=134
2B	world.	1r	.
4.d	_	.	.
[8B	_	.	.
=135	=135	=135	=135
2B]	_	1r	.
2r	.	.	.
=136	=136	=136	=136
4r	.	1r	.
8r	.	.	.
4f#	start	.	.
8f#	a-	.	.
8e	-gain.	.	.
[8f#	_	.	.
=137	=137	=137	=137
1f#]	_	1r	.
=138	=138	=138	=138
4B	_	1r	.
8d	Come	.	.
4.d	on!.	.	.
8B	It's	.	.
[8B	a	.	.
=139	=139	=139	=139
4B]	_	1r	.
4d	nice	.	.
4d	day	.	.
8B	for	.	.
8B	a	.	.
=140	=140	=140	=140
4r	.	1r	.
4D	white	.	.
8D	wed-	.	.
[4.D	-ding	.	.
=141	=141	=141	=141
4.D]	_	1r	.
8BB	uh.	.	.
4r	.	.	.
8r	.	.	.
[8b	Wooh.	.	.
=142	=142	=142	=142
2b]	_	1r	.
4B	_	.	.
8B	It's	.	.
8B	a	.	.
=143	=143	=143	=143
4r	.	1r	.
4D	nice	.	.
4D#	day	.	.
4BB	to	.	.
=144	=144	=144	=144
4r	.	1r	.
8r	.	.	.
4f#	start	.	.
8f#	a-	.	.
8e	-gain.	.	.
[8f#	_	.	.
=145	=145	=145	=145
1f#]	_	1r	.
=146	=146	=146	=146
2.B	_	1r	.
8d	It's	.	.
8B	a	.	.
=147	=147	=147	=147
4r	.	1r	.
4d	nice	.	.
4d#	day	.	.
4B	to	.	.
=148	=148	=148	=148
4r	.	1r	.
8r	.	.	.
4f#	start	.	.
8f#	a-	.	.
8e	-gain.	.	.
[8f#	_	.	.
=149	=149	=149	=149
1f#]	_	1r	.
=150	=150	=150	=150
2.B	_	1r	.
8d	It's	.	.
8B	a	.	.
=151	=151	=151	=151
4r	.	1r	.
4d	nice	.	.
4d#	day	.	.
4B	to	.	.
=152	=152	=152	=152
4r	.	1r	.
8r	.	.	.
4f#	start	.	.
8f#	a-	.	.
8e	-gain.	.	.
8f#	_	.	.
r;	.	r;	.
r;	.	r;	.
*-	*-	*-	*-
!!!ENC: Nathaniel Condit-Schultz